!!!COM: Beethoven, Ludwig van
!!!CDT: 1770///-1827///
!!!OTL: Piano Sonata no. 11 in B-flat major
!!!OPS: 22
!!!OMV: 4
!!!OMD: Rondo: Allegretto
**kern	**kern	**dynam
*staff2	*staff1	*staff1/2
*clefG2	*clefG2	*clefG2
*k[b-e-]	*k[b-e-]	*k[b-e-]
*B-:	*B-:	*B-:
*M2/4	*M2/4	*M2/4
*MM84	*MM84	*MM84
4r	16r	.
.	(16ff\LL	p
.	16gg\	.
.	16ff\JJ	.
=1	=1	=1
*^	*	*
16B-/LL	8B-\L	16ee-\LL	.
16f/	.	16dd\	.
16d/	8d\	16cc\	.
16f/JJ	.	16b-\JJ	.
16e-/LL	8c\	8a\L	.
16f/	.	.	.
16d/	8B-\J	8b-\J)	.
16f/JJ	.	.	.
=2	=2	=2	=2
16e-/LL	2A\ 2e-\	(8bn\L	.
16f/	.	.	.
16f/	.	[8cc\J)	.
16f/JJ	.	.	.
16f/LL	.	16cc\LL]	.
16f/	.	16ff#\	.
16f/	.	(16aa\	.
16f/JJ	.	16gg\JJ	.
=3	=3	=3	=3
16d/LL	8A\L	16ffn\LL	.
16f/	.	16ee-\	.
16e-/	8e-\	16dd\	.
16f/JJ	.	16cc\JJ	.
16d/LL	8d\	8b-\L	.
16f/	.	.	.
16A/	8A\J	8cc\J)	.
16f/JJ	.	.	.
=4	=4	=4	=4
16B-/LL	4.B-\	(8cc#\L	.
16f/	.	.	.
16f/	.	[8dd\J)	.
16f/JJ	.	.	.
16f/LL	.	16dd\LL]	.
16f/	.	(16ff\	.
16Bn/	8Bn\	16gg\	.
16f/JJ	.	16dd\JJ	.
=5	=5	=5	=5
16c/LL	8c\L	16ff\LL	<
16f/	.	16ee-\	.
16A/	8A\	16ff\	.
16f/JJ	.	16ccn\JJ	.
16B-/LL	8B-\	16ee-\LL	.
16f/	.	16dd\	.
16Bn/	8Bn\J	16gg\	.
16f/JJ	.	16dd\JJ	.
=6	=6	=6	=6
16c/LL	8c\L	16ff\LL	.
16f/	.	16ee-\	.
16A/	8A\J	16ff\	.
16f/JJ	.	16cc\JJ	.
*v	*v	*	*
*clefF4	*	*
*^	*	*
16B-/LL	8B-\L	16dd\LL	.
16d/	.	16ee-\	.
16A/	8A\J	16een\	.
16c/JJ	.	16ff\JJ	.
=7	=7	=7	=7
16G/LL	8G\L	16ff#\LL	.
16B-/	.	16gg\	.
16G/	8G\J	16aa\	.
16B-/JJ	.	16bb-\JJ	.
16G/LL	8C\L	16ccc\LL	.
16B-/	.	16ccc#\	.
16G/	8C\J	16ddd\	.
16B-/JJ	.	16een\JJ)	.
=8	=8	=8	=8
16r	[4F\	(8gg\L	p
16B-/LL	.	.	.
16A/	.	8ff\J)	.
16G/JJ	.	.	.
8A/	8F\]	16r	.
.	.	16f\ (16ff\LL	.
8r	8r	16g\ 16gg\	.
.	.	16f\ 16ff\JJ	.
=9	=9	=9	=9
16BB-/LL	8BB-\L	16e-/ 16ee-/LL	.
16F/	.	16d/ 16dd/	.
16D/	8D\	16c/ 16cc/	.
16F/JJ	.	16B-/ 16b-/JJ)	.
16E-/LL	8C\	8A/ (8a/L	.
16F/	.	.	.
16D/	8BB-\J	8B-/ 8b-/J	.
16F/JJ	.	.	.
=10	=10	=10	=10
16E-/LL	2AA\ 2E-\	8Bn/ 8bn/L	.
16F/	.	.	.
16F/	.	8.c/ 8.cc/J)	.
16F/JJ	.	.	.
16F/LL	.	.	.
16F/	.	16f#\ (16ff#\LL	.
16F/	.	16a\ 16aa\	.
16F/JJ	.	16g\ 16gg\JJ	.
=11	=11	=11	=11
16AA/LL	8AA\L	16fn/ 16ffn/LL	.
16F/	.	16e-/ 16ee-/	.
16E-/	8E-\	16d/ 16dd/	.
16F/JJ	.	16c/ 16cc/JJ	.
16D/LL	8D\	8B-/ 8b-/L	.
16F/	.	.	.
16AA/	8AA\J	8c/ 8cc/J	.
16F/JJ	.	.	.
=12	=12	=12	=12
*	*	*^	*
16BB-/LL	4.BB-\	8c#/ 8cc#/L	4.r	.
16F/	.	.	.	.
16F/	.	8.d/ 8.dd/J)	.	.
16F/JJ	.	.	.	.
16F/LL	.	.	.	.
16F/	.	16ff/LL	.	.
16BBn/	(8BBn\	16gg/	[8a-\	.
16F/JJ	.	16dd/JJ	.	.
=13	=13	=13	=13	=13
16C/LL	8C\L	16ff/LL	8a-\L]	<
16F/	.	16ee-/	.	.
16FF/	8FF\	16ff/	8an\J	.
16F/JJ	.	16cc/JJ	.	.
16BB-/LL	8BB-\	16ee-/LL	8b-\L	.
16F/	.	16dd/	.	.
16BBn/	8BBn\J	16gg/	[8a-\J	.
16F/JJ	.	16dd/JJ	.	.
=14	=14	=14	=14	=14
16C/LL	8C\L	16ff/LL	8a-\L]	.
16F/	.	16ee-/	.	.
16FF/	8FF\	16ff/	8an\J	.
16F/JJ	.	16cc/JJ	.	.
16BB-/LL	8BB-\	16ee-/LL	16b-\	.
16F/	.	16d/ 16dd/	8.r	.
16AA-/	8AA-\J	16e-/ 16ee-/	.	.
16BB-/JJ	.	16f/ 16ff/JJ	.	.
*	*	*v	*v	*
=15	=15	=15	=15
16GG/LL	8GG\L	16f#\ 16ff#\LL	f
16BB-/	.	16g\ 16gg\	.
16EE-/	8EE-\	16a'\ 16aa'\	.
16E-/JJ	.	16b-'\ 16bb-'\JJ	.
16FF/LL	8FF\	8B-/ 8b-/L	.
16D/	.	.	.
16FF/)	8FF\J	8c/ 8cc/J	.
16AA/JJ	.	.	.
=16	=16	=16	=16
16BBB-/	16r	8c#/ 8cc#/L	p
16BB-/LL	[8.BB-\	.	.
16B-/	.	[8d/ [8dd/J	.
16B-/JJ	.	.	.
16B-/LL	8BB-\L]	32d/] (32dd/LLL]	<
.	.	32b-/	.
16B-/	.	32a/	.
.	.	32b-/	.
16A-/	8A-\J	32bn/	.
.	.	32ccn/	.
16B-/JJ	.	32cc#/	.
.	.	32dd/JJJ	.
=17	=17	=17	=17
*	*	*^	*
16G/LL	8G\L	32ee-/LLL	4.r	.
.	.	32een/	.	.
16B-/	.	32ff/	.	.
.	.	32ff#/	.	.
16E-/	8E-\J	32gg/	.	.
.	.	32aa-/	.	.
16e-/JJ	.	32aan/	.	.
.	.	32bb-/JJJ)	.	.
16F/LL	8F\L	(8b-/L	.	p
16d/	.	.	.	.
*	*	*v	*v	*
.	.	aq/LL	.
.	.	b-q/JJ	.
*	*	*^	*
16F/	8F\J	16.dd/L	8e-\	.
16A/JJ	.	.	.	.
.	.	32cc/JJk)	.	.
*v	*v	*	*	*
*	*v	*v	*
=18	=18	=18
8BB-'\ 8B-'\	8d'/ 8b-'/	.
8r	8r	.
4B-\ 4d\	4f/ 4dd/	.
=19	=19	=19
*	*^	*
4.E-\ 4.c\	(8.cc/L	4.g\	.
.	bnq/LL	.	.
.	ccq/JJ	.	.
.	32dd/LL	.	.
.	32ee-/JJJ)	.	.
.	(8g/L	.	.
8F\ 8c\	8a/J)	8e-\	.
=20	=20	=20	=20
8BB-\ 8B-\	8b-/L	4d\	.
8r	16f/Jk	.	.
.	16r	.	.
4B-\ 4d\	(4dd/	4f\	.
=21	=21	=21	=21
4En\ 4G\	8cc/L	4g\	.
.	16.cc/L	.	.
.	32dd/JJk	.	.
4C\ 4c\	8b-/L	4en\	.
.	16.b-/L	.	.
.	32cc/JJk)	.	.
=22	=22	=22	=22
4F\ 4c\	8b-/L	4f\	.
.	16a/Jk	.	.
.	16r	.	.
32AA/LLL	8r	4r	p
32F/J	.	.	.
[16A/JJ	.	.	.
8AA/ 8F/ 8A/]	(32a/LLL	.	p
.	32ff/J	.	.
.	[16aa/JJ)	.	.
*	*v	*v	*
=23	=23	=23
32BB-/LLL	8a/ 8ff/ 8aa/]	.
32F/J	.	.
[16A/JJ	.	.
8BB-/ 8F/ 8A/]	32a/LLL	.
.	32ff/J	.
.	[16aa/JJ	.
32C/LLL	8a/ 8ff/ 8aa/]	.
32F/J	.	.
[16A/JJ	.	.
8C/ 8F/ 8A/]	32a/LLL	.
.	32ff/J	.
.	[16aa/JJ	.
=24	=24	=24
*^	*	*
32D/LLL	4r	8a/ 8ff/ 8aa/]	.
32F/J	.	.	.
[16A/JJ	.	.	.
8D/ 8F/ 8A/]	.	(32a/LLL	.
.	.	[32ff/J	.
.	.	16a/ 16ff/] 16aa/JJ)	.
*v	*v	*	*
*clefG2	*	*
*^	*	*
8a/L	4d\ 4f\	8r	.
[8bn/J	.	[8ff\ [8fff\	f
=25	=25	=25	=25
8b/L]	4c\ 4g\	8ff\] (8fff\L]	.
16cc/Jk	.	16een\ 16eeen\Jk)	.
16r	.	16r	.
8f/L	4B-\ 4d\	8r	.
[8en/ [8g/J	.	[8dd\ [8ddd\	.
=26	=26	=26	=26
8e/] (8g/L]	4A\	8dd\] (8ddd\L]	.
16f/ 16a/Jk)	.	16cc\ 16ccc\Jk)	.
16r	.	16r	.
*v	*v	*	*
*clefF4	*	*
*^	*	*
(8d/L	4G\ 4B-\	8r	.
8en/J	.	[8b-\ [8bb-\	.
*v	*v	*	*
=27	=27	=27
8F\ 8c\ 8f\)	16b-\] 16bb-\LK]	.
.	8a\ 8aa\	.
8BB-'\ 8B-'\L	.	.
.	8g\ 8gg\	.
8C'\ 8A'\	.	.
.	8f\ 8ff\	.
8C'\ 8En'\J	.	.
.	16g\ 16gg\Jk	.
=28	=28	=28
*^	*^	*
8FF/ 8F/	4r	4r	8g#\ (8gg#\L	.
8r	.	.	16a\ 16aa\Jk)	.
.	.	.	16r	.
8F/L	4D\	8a/L	[4f\	.
[8G#/J	.	[8bn/J	.	.
=29	=29	=29	=29	=29
8G#/L]	4C\	8b/L]	8f\L]	.
16A/Jk	.	16cc/Jk	16en\Jk	.
16r	.	16r	16r	.
8D/L	4BB-\	8f/L	[4d\	.
[8En/J	.	8g/J	.	.
=30	=30	=30	=30	=30
8E/L]	4AA\	8g#/L	8d\L]	.
16F/Jk	.	16a/Jk	16c\Jk	.
16r	.	16r	16r	.
8D/L	4GG\	8d/L	4B-\	<
[8D-/J	.	8en/J	.	.
=31	=31	=31	=31	=31
16D-/LK]	(8FF\L	16f/	(16B-\LK	.
8C/	.	8.r	8A\	.
.	8BBB-\	.	.	.
8BB-/	.	.	8G\	.
.	8CC\	4r	.	.
8AA/	.	.	8F\	.
.	8CC\J)	.	.	.
16GG/Jk	.	.	16En\Jk)	.
*	*	*v	*v	*
=32	=32	=32	=32
32F/LLL	(8FFF\	8r	.
32AA/	.	.	.
32C/	.	.	.
32F/JJJ	.	.	.
8FF/L)	4.FF\	32A/LLL	.
.	.	32c/	.
.	.	32f/	.
.	.	32a/JJJ	.
[8AA/	.	32c/LLL	.
.	.	32f/	.
.	.	32a/	.
.	.	32cc/JJJ	.
8AA/] 8C/J	.	32f/LLL	.
.	.	32a/	.
.	.	32cc/	.
.	.	32ff/JJJ	.
=33	=33	=33	=33
8GG/L	2FF\ 2GG\	32een\LLL	.
.	.	32bb-\	.
.	.	32gg\	.
.	.	32ee\JJJ	.
[8BB-/	.	32cc\LLL	.
.	.	32gg\	.
.	.	32ee\	.
.	.	32cc\JJJ	.
8BB-/_ [8C/	.	32b-\LLL	.
.	.	32ee\	.
.	.	32cc\	.
.	.	32b-\JJJ	.
8BB-/] 8C/] 8En/J	.	32g\LLL	.
.	.	32cc\	.
.	.	32b-\	.
.	.	32g\JJJ	.
=34	=34	=34	=34
(8FF/	8r	32f/LLL	.
.	.	32A/	.
.	.	32c/	.
.	.	32f/JJJ	.
8F/L	4.F\)	32a\LLL	.
.	.	32cc\	.
.	.	32ff\	.
.	.	32aa\JJJ	.
[8A/	.	32cc\LLL	.
.	.	32ff\	.
.	.	32aa\	.
.	.	32ccc\JJJ	.
8A/] 8c/J	.	32ff\LLL	.
.	.	32aa\	.
.	.	32ccc\	.
.	.	32fff\JJJ	.
=35	=35	=35	=35
8G/L	2G\	32bb-\LLL	.
.	.	32eeen\	.
.	.	32ccc\	.
.	.	32bb-\JJJ	.
[8B-/	.	32gg\LLL	.
.	.	32ccc\	.
.	.	32bb-\	.
.	.	32gg\JJJ	.
8B-/_ [8c/	.	32een\LLL	.
.	.	32bb-\	.
.	.	32gg\	.
.	.	32ee\JJJ	.
8B-/] 8c/] 8en/J	.	32b-\LLL	.
.	.	32gg\	.
.	.	32ee\	.
.	.	32b-\JJJ	.
=36	=36	=36	=36
(8FF/	8r	32a/LLL	<
.	.	32A/	.
.	.	32c/	.
.	.	32f/JJJ	.
8F/L)	4.F\	32a\LLL	.
.	.	32cc\	.
.	.	32ff\	.
.	.	32aa\JJJ	.
[8A/	.	32cc\LLL	.
.	.	32ff\	.
.	.	32aa\	.
.	.	32ccc\JJJ	.
8A/] 8c/J	.	32ff\LLL	.
.	.	32aa\	.
.	.	32ccc\	.
.	.	32fff\JJJ	.
=37	=37	=37	=37
(8EE-/	8r	32r	.
.	.	32A/LLL	.
.	.	32c/	.
.	.	32f/JJJ	.
8E-/L	4.E-\)	32a\LLL	.
.	.	32cc\	.
.	.	32ff\	.
.	.	32aa\JJJ	.
[8A/	.	32cc\LLL	.
.	.	32ff\	.
.	.	32aa\	.
.	.	32ccc\JJJ	.
8A/] 8c/J	.	32ff\LLL	.
.	.	32aa\	.
.	.	32ccc\	.
.	.	32fff\JJJ	.
=38	=38	=38	=38
(8DD-/	8r	32r	.
.	.	32B-/LLL	.
.	.	32d-/	.
.	.	32f/JJJ	.
8D-/L)	4.D-\	32b-\LLL	.
.	.	32dd-\	.
.	.	32ff\	.
.	.	32bb-\JJJ	.
[8F/	.	32dd-\LLL	.
.	.	32ff\	.
.	.	32bb-\	.
.	.	32ddd-\JJJ	.
8F/] 8B-/J	.	32ff\LLL	.
.	.	32bb-\	.
.	.	32ddd-\	.
.	.	32fff\JJJ	.
=39	=39	=39	=39
(8GG-/L	2GG-\	32een\LLL	f
.	.	32eeen\	.
.	.	(32ddd-\	.
.	.	32bb-\JJJ	.
8BB-/	.	32ee\LLL	.
.	.	32dd-\	.
.	.	32b-\	.
.	.	32en\JJJ)	.
8D-/	.	(32d-/LLL	.
.	.	32e-/	.
.	.	32d-/	.
.	.	32c/JJJ	.
8En/J)	.	32B-/LLL	.
.	.	32d-/	.
.	.	32c/	.
.	.	32B-/JJJ)	.
*v	*v	*	*
=40	=40	=40
[4FF/ [4F/	8A/	p
.	8r	.
16FF/] 16F/]	4r	.
(16C/LL	.	.
16D/	.	.
16C/JJ	.	.
=41	=41	=41
16BB-/LL	4r	.
16AA/	.	.
16GG/	.	.
16FF/JJ)	.	.
8FF/	16r	.
.	16c/LL	p
8r	16d/	.
.	16c/JJ	.
=42	=42	=42
*^	*	*
16B-/LL	4r	4r	.
16A/	.	.	.
16G/	.	.	.
16F/JJ	.	.	.
8F/	16r	8r	.
.	(16E-\LL	.	.
8r	16F\	8r	.
.	16E-\JJ	.	.
*v	*v	*	*
=43	=43	=43
16D/LL	4r	.
16C/	.	.
16BB-/	.	.
16AA/JJ)	.	.
8AA/	16r	.
.	16e-/LL	.
8r	16f/	.
.	16e-/JJ	.
=44	=44	=44
4r	16d/LL	.
.	16c/	.
.	16B-/	.
.	16A/JJ	.
16r	8A/	.
16c\LL	.	.
16d\	16r	.
16c\JJ	(16cc\	.
=45	=45	=45
16B-\LL	16dd\LL	.
16A\	16cc\	.
16G\	16b-\	.
16F\JJ	16a\JJ	.
16r	16g/LL	.
16e-\LL	16f/JJ)	.
16f\	16r	.
16e-\JJ	(16ee-\	.
=46	=46	=46
16d\LL	16ff\LL	.
16c\	16ee-\	.
16B-\	16dd\	.
16A\JJ	16cc\JJ	.
4r	16b-\LL	.
.	16a\	.
.	16ff\	.
.	16ee-\JJ	.
=47	=47	=47
2r	16dd\LL	.
.	16cc\	.
.	16b-\	.
.	16a\JJ	.
.	16ff\LL	.
.	16ee-\	.
.	16dd\	.
.	16cc\JJ	.
=48	=48	=48
2r	24b-\LL	.
.	24a\	.
.	24ff\JJ	.
.	24ee-\LL	.
.	24dd\	<
.	24cc\JJ	.
.	32b-\LLL	.
.	32a\	.
.	32ff\	.
.	32ee-\JJJ	.
.	32dd\LLL	.
.	32cc\	.
.	32b-\	.
.	32a\JJJ)	.
=49	=49	=49
2r	32ff\LLL	.
.	32ee-\	.
.	32dd\	.
.	32cc\JJJ	.
.	32b-\LLL	.
.	32a\	.
.	32gg-\	.
.	32ff\JJJ	.
.	40ee-\LLL	.
.	40dd\	.
.	40cc\	.
.	40b-\	.
.	40a\JJJ	.
.	16ggn\LL	.
.	16ff\JJ	.
*clefG2	*	*
=50	=50	=50
*^	*	*
16B-/LL	8B-\L	(16ee-\LL	.
16f/	.	16dd\	.
16d/	8d\	16cc\	.
16f/JJ	.	16b-\JJ	.
16e-/LL	8c\	8a\L	.
16f/	.	.	.
16d/	8B-\J	8b-\J	.
16f/JJ	.	.	.
=51	=51	=51	=51
16e-/LL	2A\ 2e-\	8bn\L	.
16f/	.	.	.
16f/	.	8.cc\J)	.
16f/JJ	.	.	.
16f/LL	.	.	.
16f/	.	16ff#\LL	.
16f/	.	(16aa\	.
16f/JJ	.	16gg\JJ	.
=52	=52	=52	=52
16A/LL	8A\L	16ffn\LL	.
16f/	.	16ee-\	.
16e-/	8e-\	16dd\	.
16f/JJ	.	16cc\JJ	.
16d/LL	8d\	16a\LL	.
16f/	.	16b-\	.
16A/	8A\J	16bn\	.
16f/JJ	.	16cc\JJ	.
=53	=53	=53	=53
16B-/LL	4.B-\	8cc#\L	.
16f/	.	.	.
16f/	.	8.dd\J)	.
16f/JJ	.	.	.
16f/LL	.	.	.
16f/	.	(16ff\LL	<
16Bn/	8Bn\	16gg\	.
16f/JJ	.	16dd\JJ	.
=54	=54	=54	=54
(16c/LL	8c\L	16ff\LL	.
16f/	.	16ee-\	.
16A/	8A\	16ff\	.
16f/JJ	.	16ccn\JJ	.
16B-/LL	8B-\	16ee-\LL	.
16f/	.	16dd\	.
16Bn/)	8Bn\J	16gg\	.
16f/JJ	.	16dd\JJ)	.
=55	=55	=55	=55
16c/LL	8c\L	(16ff\LL	.
16f/	.	16ee-\	.
16A/	8A\	16ff\	.
16f/JJ	.	16cc\JJ	.
16B-/LL	8B-\	16dd\LL	.
16f/	.	16ee-\	.
16A/	8A\J	16een\	.
16c/JJ	.	16ff\JJ	.
*v	*v	*	*
*clefF4	*	*
=56	=56	=56
*^	*	*
16G/LL	8G\L	16ff#\LL	.
16B-/	.	16gg\	.
16G/	8G\J	16aa\	.
16B-/JJ	.	16bb-\JJ	.
16G/LL	8C\L	16ccc\LL	.
16B-/	.	16ccc#\	.
16G/	8C\J	16ddd\	.
16B-/JJ	.	16een\JJ	.
=57	=57	=57	=57
16r	[4F\	8gg\L	p
(16B-/LL	.	.	.
16A/	.	8ff\J)	.
16G/JJ	.	.	.
8A/)	8F\]	16r	.
.	.	16f\ 16ff\LL	.
8r	8r	16g\ 16gg\	.
.	.	16f\ 16ff\JJ	.
=58	=58	=58	=58
(16BB-/LL	8BB-\L	16e-/ 16ee-/LL	.
16F/	.	16d/ 16dd/	.
16D/	8D\	16c/ 16cc/	.
16F/JJ	.	16B-/ 16b-/JJ	.
16E-/LL	8C\	8A/ 8a/L	.
16F/	.	.	.
16D/	8BB-\J)	8B-/ 8b-/J	.
16F/JJ	.	.	.
=59	=59	=59	=59
16E-/LL	2AA\ 2E-\	8Bn/ 8bn/L	.
16F/	.	.	.
16F/	.	8.c/ 8.cc/J	.
16F/JJ	.	.	.
16F/LL	.	.	.
16F/	.	16f#\ 16ff#\LL	.
16F/	.	16a\ 16aa\	.
16F/JJ	.	16g\ 16gg\JJ	.
=60	=60	=60	=60
16AA/LL	(8AA\L	16fn/ 16ffn/LL	.
16F/	.	16e-/ 16ee-/	.
16E-/	8E-\	16d/ 16dd/	.
16F/JJ	.	16c/ 16cc/JJ	.
16D/LL	8D\	16A/ 16a/LL	.
16F/	.	16B-/ 16b-/	.
16AA/)	8AA\J	16Bn/ 16bn/	.
16F/JJ	.	16c/ 16cc/JJ	.
=61	=61	=61	=61
*	*	*^	*
16BB-/LL	4.BB-\	8c#/ 8cc#/L	4.r	.
16F/	.	.	.	.
16F/	.	8.d/ 8.dd/J	.	.
16F/JJ	.	.	.	.
16F/LL	.	.	.	.
16F/	.	(16ff/LL	.	<
16BBn/	8BBn\	16gg/	[8a-\	.
16F/JJ	.	16dd/JJ	.	.
=62	=62	=62	=62	=62
16C/LL	8C\L	16ff/LL	8a-\L]	.
16F/	.	16ee-/	.	.
16FF/	8FF\	16ff/	8an\J	.
16F/JJ	.	16cc/JJ	.	.
16BB-/LL	8BB-\	16ee-/LL	8b-\L	.
16F/	.	16dd/	.	.
16BBn/	8BBn\J	16gg/	[8a-\J	.
16F/JJ	.	16dd/JJ	.	.
=63	=63	=63	=63	=63
16C/LL	8C\L	16ff/LL	8a-\L]	.
16F/	.	16ee-/	.	.
16FF/	8FF\	16ff/	8an\J	.
16F/JJ	.	16cc/JJ	.	.
16BB-/LL	8BB-\	16ee-/LL	16b-\	.
16F/	.	16d/ 16dd/	8.r	.
16AA-/	8AA-\J	16e-/ 16ee-/	.	.
16BB-/JJ	.	16f/ 16ff/JJ	.	.
*v	*v	*	*	*
*	*v	*v	*
=64	=64	=64
16GG/LL	16f#\ 16ff#\LL	f
16BB-/	16g\ 16gg\)	.
16EE-/	16a'\ 16aa'\	.
16E-/JJ	16b-'\ 16bb-'\JJ	.
16FF/LL	8B-/ 8b-/L	.
16D/	.	.
16FF/	8c/ 8cc/J	.
16AA/JJ	.	.
=65	=65	=65
*^	*	*
16BBB-/	16r	8c#/ 8cc#/L	p
16BB-/LL	8.BB-\	.	.
16B-/	.	[8d/ [8dd/J	.
16B-/JJ	.	.	.
16B-/LL	8BB-\L	32d/] (32dd/LLL]	<
.	.	32b-/	.
16B-/	.	32a/	.
.	.	32b-/	.
16A-/	8A-\J	32bn/	.
.	.	32ccn/	.
16B-/JJ	.	32cc#/	.
.	.	32dd/JJJ	.
=66	=66	=66	=66
*	*	*^	*
16G/LL	8G\L	32ee-\LLL	4.r	.
.	.	32een\	.	.
16B-/	.	32ff\	.	.
.	.	32ff#\	.	.
16E-/	8E-\J	32gg\	.	.
.	.	32aa-\	.	.
16e-/JJ	.	32aan\	.	.
.	.	32bb-\JJJ)	.	.
16F/LL	8F\L	8b-/L	.	p
16d/	.	.	.	.
*	*	*v	*v	*
.	.	aq/LL	.
.	.	b-q/JJ	.
*	*	*^	*
16F/	8F\J	16.dd/L	8e-\	.
16A/JJ	.	.	.	.
.	.	32cc/JJk	.	.
*v	*v	*	*	*
*	*v	*v	*
=67	=67	=67
8BB-\ 8B-\	8d/ 8b-/	.
8r	8r	.
4BB-\ 4D-\	4F/ 4d-/	f
=68	=68	=68
*^	*^	*
(8.C-/L	4.EE-\	(8.c-/L	4G-\	.
32D-/LL)	.	32d-/LL	.	.
32E-/JJJ	.	32e-/JJJ)	.	.
(8GG-/L	.	4r	(8G-/L	.
8AA/J)	8FF\	.	8E-/ 8An/J)	.
*	*	*v	*v	*
=69	=69	=69	=69
8D-/ 8B-/L	4BBB-\ 4BB-\	4r	.
16F/Jk	.	.	.
16r	.	.	.
4F/	4BB-\ 4D-\	4d-/	f
=70	=70	=70	=70
4G/	4EEn\ 4Cn\	4cn/	f
4r	4En\ 4G\	4c/ 4b-/	f
*v	*v	*	*
=71	=71	=71
8F'\ 8A-'\L	8c'/ 8a-'/	.
8BBn'\ 8Bn'\J	4f'\ 4a-'\ (4ff'\	.
8C'\ 8c'\L	.	.
8CC'\ 8C'\J	8en\ 8g\ 8een\	.
=72	=72	=72
16FF'/ 16F'/	16f'\ 16a-'\ 16ff'\)	.
*	*clefF4	*clefF4
16EEn'/ 16GG'/LL	32c\LLL	p
.	32B-\JJJ	.
16FF'/ 16AA-'/	32c\LLL	.
.	32A-\	.
16GG'/ 16BB-'/JJ	32c\	.
.	32G\JJJ	.
16AA-'/ 16C'/LL	32c\LLL	.
.	32F\	.
16BB-'/ 16D-'/	32c\	.
.	32En\JJJ	.
16AA-'/ 16C'/	32c\LLL	.
.	32F\	.
16GG'/ 16BB-'/JJ	32c\	.
.	32G\JJJ	.
*	*clefG2	*clefG2
=73	=73	=73
16FF'/ 16AA-'/LL	32c/LLL	.
.	32A-/	.
16AAn'/ 16C'/	32f/	.
.	32e-/JJJ	.
16BB-'/ 16D-'/	32f/LLL	.
.	32d-/	.
16C'/ 16E-'/JJ	32f/	.
.	32c/JJJ	.
16D-'\ 16F'\LL	32f/LLL	.
.	32B-/	.
16E-'\ 16G-'\	32f/	.
.	32An/JJJ	.
16D-'\ 16F'\	32f/LLL	.
.	32B-/	.
16C'\ 16E-'\JJ	32f/	.
.	32c/JJJ	.
=74	=74	=74
16BB-'\ 16D-'\LL	32f/LLL	.
.	32d-/	.
16BB-'\ 16D-'\	32f/	.
.	32d-/JJJ	.
16BBn'\ 16Dn'\	32g/LLL	.
.	32f/	.
16BB'\ 16D'\JJ	32g/	.
.	32f/JJJ	.
16C'\ 16F'\LL	32a-/LLL	.
.	32f/	.
16C'\ 16F'\	32a-/	.
.	32f/JJJ	.
16C'\ 16G'\	32b-/LLL	.
.	32en/	.
16C'\ 16G'\JJ	32b-/	.
.	32e/JJJ	.
=75	=75	=75
16F'\ 16A-'\	16f/	<
16EEn'\ 16En'\LL	32c/ 32cc/LLL	.
.	32b-/JJJ	.
16FF'\ 16F'\	32c/ 32cc/LLL	.
.	32a-/	.
16GG'\ 16G'\JJ	32c/ 32cc/	.
.	32g/JJJ	.
16AA-'\ 16A-'\LL	32c/ 32cc/LLL	.
.	32f/	.
16BB-'\ 16B-'\	32c/ 32cc/	.
.	32en/JJJ	.
16AA-'\ 16A-'\	32c/ 32cc/LLL	.
.	32f/	.
16GG'\ 16G'\JJ	32c/ 32cc/	.
.	32g/JJJ	.
=76	=76	=76
16FF'\ 16F'\LL	32c\ 32cc\LLL	.
.	32a-\	.
16AAn'\ 16An'\	32f\ 32ff\	.
.	32ee-\JJJ	.
16BB-'\ 16B-'\	32f\ 32ff\LLL	.
.	32dd-\	.
16C'\ 16c'\JJ	32f\ 32ff\	.
.	32cc\JJJ	.
16D-'\ 16d-'\LL	32f\ 32ff\LLL	.
.	32b-\	.
16E-'\ 16e-'\	32f\ 32ff\	.
.	32an\JJJ	.
16D-'\ 16d-'\	32f\ 32ff\LLL	.
.	32b-\	.
16C'\ 16c'\JJ	32f\ 32ff\	.
.	32cc\JJJ	.
=77	=77	=77
16BB-\ 16B-\LL	32f\ 32ff\LLL	.
.	32dd-\	.
16B-\ 16d-\	32f\ 32ff\	.
.	32dd-\JJJ	.
16Bn\ 16dn\	32g\ 32gg\LLL	.
.	32ff\	.
16B\ 16d\JJ	32g\ 32gg\	.
.	32ff\JJJ	.
*clefG2	*	*
16c/ 16f/LL	32a-\ 32aa-\LLL	.
.	32ff\	.
16c/ 16f/	32a-\ 32aa-\	.
.	32ff\JJJ	.
16c/ 16g/	32b-\ 32bb-\LLL	.
.	32een\	.
16c/ 16g/JJ	32b-\ 32bb-\	.
.	32ee\JJJ	.
*clefF4	*	*
=78	=78	=78
*	*^	*
16F\ 16A-\ 16c\ 16f\LL	4.r	16ff'\LK	f
16F\ 16A-\ 16c\ 16f\	.	8fff\	.
16F\ 16A-\ 16c\ 16f\	.	.	.
16F\ 16A-\ 16c\ 16f\JJ	.	16fff\Jk	.
16F\ 16G\ 16B-\ 16c\ 16en\LL	.	(32eeen\LLL	.
.	.	32ddd-\	.
16F\ 16G\ 16B-\ 16c\ 16e\	.	32bb-\	.
.	.	32gg\JJJ)	.
16F\ 16G\ 16B-\ 16c\ 16e\	(16een/LL	32dd-\LLL	.
.	.	32cc\	.
16F\ 16G\ 16B-\ 16c\ 16e\JJ	16ee/JJ	32dd-\)	.
.	.	32b-\JJJ	.
=79	=79	=79	=79
16FF/ 16AA-/ 16C/ 16F/LL	16ff/	16a-\LK	.
16FF/ 16AA-/ 16C/ 16F/	8.r	8ff\	.
16FF/ 16AA-/ 16C/ 16F/	.	.	.
16FF/ 16AA-/ 16C/ 16F/JJ	.	16ff\Jk	.
16FF/ 16GG/ 16BB-/ 16C/ 16En/LL	8r	(32een\LLL	.
.	.	32dd-\	.
16FF/ 16GG/ 16BB-/ 16C/ 16E/	.	32b-\	.
.	.	32g\JJJ)	.
16FF/ 16GG/ 16BB-/ 16C/ 16E/	(16en/LL	32d-\LLL	.
.	.	32c\	.
16FF/ 16GG/ 16BB-/ 16C/ 16E/JJ	16e/JJ	32d-\)	.
.	.	32B-\JJJ	.
*	*v	*v	*
=80	=80	=80
8FF/ 8F/	8A-/ 8f/	.
8r	8r	.
4AA-/	4r	.
=81	=81	=81
(8.GG/L	8r	.
.	[8B-/	.
32AA-/LL	.	.
32BB-/JJJ)	.	.
8DDn'/L	8B-/L_	.
8EEn'/J	(32B-/LL]	.
.	32d-/	.
.	32c/	.
.	32B-/JJJ)	.
=82	=82	=82
8FF\	8A-/L	.
8r	16F/Jk	.
.	16r	.
4D-\	4r	.
=83	=83	=83
(8.C/L	8r	.
.	[8e-/	.
32D-/LL	.	.
32E-/JJJ)	.	.
8GGn'/L	8e-/L_	.
8AAn'/J	(32e-/LL]	.
.	32g-/	.
.	32f/	.
.	32e-/JJJ)	.
=84	=84	=84
*	*^	*
8BB-'/	4r	(8d-/L	.
8r	.	16B-/Jk)	.
.	.	16r	.
4r	4dd-/	4r	.
=85	=85	=85	=85
4r	(8.cc/L	[4e-\	.
.	32dd-/LL	.	.
.	32ee-/JJJ)	.	.
(4F\	8g/L	8e-\L_	.
.	(8an'/J	32e-\LL]	.
.	.	32g-\	.
.	.	32f\	.
.	.	32e-\JJJ)	.
=86	=86	=86	=86
8BB-/)	4b-/	8d-\L	.
8r	.	16B-\Jk	.
.	.	16r	.
4r	4gg-/	4r	.
=87	=87	=87	=87
4r	(8.ff/L	[4a-\	.
.	32gg-/LL	.	.
.	32aa-/JJJ)	.	.
(4B-\	8cc'/L	8a-\L_	.
.	8ddn'/J	32a-\LL]	.
.	.	32cc-\	.
.	.	32b-\	.
.	.	32a-\JJJ	.
=88	=88	=88	=88
8E-\)	4ee-/	8g-\L	.
8r	.	16e-\Jk	.
.	.	16r	.
4G-\ 4B-\	4r	4r	.
*	*v	*v	*
=89	=89	=89
8.F\ (8.A-\L	8r	.
.	[8aa-\ [8ccc-\	.
32G-\ 32B-\LL	.	.
32A-\ 32c-\JJJ)	.	.
8Cn'\ 8E-'\L	8.aa-\] (8.ccc-\L]	.
8D'\ 8F'\J	.	.
.	32gg-\ 32bb-\LL	.
.	32ff\ 32aa-\JJJ)	.
=90	=90	=90
8.E-\ (8.G-\L	8ee-'\ 8gg-'\L	.
.	[8gg-\ [8bb-\J	.
32F\ 32A-\LL	.	.
32G-\ 32B-\JJJ)	.	.
8BB-'\ 8D-'\L	8.gg-\] (8.bb-\L]	.
8C'\ 8E-'\J	.	.
.	32ff\ 32aa-\LL	.
.	32ee-\ 32gg-\JJJ)	.
=91	=91	=91
8D-'\ 8F'\L	8.dd-\ (8.ff\L	.
[8F\ [8A-\J	.	.
.	32ee-\ 32gg-\LL	.
.	32ff\ 32aa-\JJJ)	.
8.F\] (8.A-\L]	8a-'\ 8cc'\L	.
.	8b-'\ 8dd-'\J	.
32E-\ 32G-\LL	.	.
32D-\ 32F\JJJ)	.	.
=92	=92	=92
8C/ 8E-/L	8.cc\ (8.ee-\L	.
*clefG2	*	*
[8e-/ [8g-/J	.	.
.	32dd-\ 32ff\LL	.
.	32ee-\ 32gg-\JJJ)	.
(8.e-/] 8.g-/L]	8g-'\ 8b-'\L	.
.	8an'\ 8cc'\J	.
32d-/ 32f/LL	.	.
32c/) 32e-/JJJ	.	.
*clefF4	*	*
=93	=93	=93
*	*^	*
8.B-\ (8.d-\L	(8.dd-/L	4b-\	.
16A-\ 16c\Jk)	32ee-/LL	.	.
.	32ff/JJJ)	.	.
8.G-\ (8.B-\L	(8.gg-/L	4dd-\	.
16F\ 16A-\Jk)	32aa-/LL	.	.
.	32bb-/JJJ)	.	.
=94	=94	=94	=94
*^	*	*	*
(8G-/L	4E-\	(8.ccc-/L	4gg-\	.
8e-/J)	.	.	.	.
.	.	32ddd-/LL	.	.
.	.	32eee-/JJJ)	.	.
8d-'/L	8F\L	4r	8f'/ 8b-'/L	.
8c'/J	8F\J	.	8e-'/ 8an'/J	.
*v	*v	*	*	*
*	*v	*v	*
=95	=95	=95
16BB-'\ 16B-'\	16d-'/ 16b-'/	.
16AA'/ 16C'/LL	32f/LLL	p
.	32e-/JJJ	.
16BB-'/ 16D-'/	32f/LLL	.
.	32d-/	.
16C'/ 16E-'/JJ	32f/	.
.	32c/JJJ	.
16D-'\ 16F'\LL	32f/LLL	.
.	32B-/	.
16E-'\ 16G-'\	32f/	.
.	32A/JJJ	.
16D-'\ 16F'\	32f/LLL	.
.	32B-/	.
16C'\ 16E-'\JJ	32f/	.
.	32c/JJJ	.
=96	=96	=96
16BB-'\ 16D-'\LL	32f/LLL	.
.	32d-/	.
16Dn'\ 16F'\	32b-/	.
.	32a-/JJJ	.
16E-'\ 16G-'\	32b-/LLL	.
.	32g-/	.
16F'\ 16A-'\JJ	32b-/	.
.	32f/JJJ	.
16G-'\ 16B-'\LL	32b-/LLL	.
.	32e-/	.
16A-'\ 16c-'\	32b-/	.
.	32dn/JJJ	.
16G-'\ 16B-'\	32b-/LLL	.
.	32e-/	.
16F'\ 16A-'\JJ	32b-/	.
.	32f/JJJ	.
=97	=97	=97
16E-'\ 16G-'\LL	32b-\LLL	.
.	32g-\	.
16E-'\ 16G-'\	32b-\	.
.	32g-\JJJ	.
16En'\ 16Gn'\	32cc\LLL	.
.	32b-\	.
16E'\ 16G'\JJ	32cc\	.
.	32b-\JJJ	.
16F'\ 16B-'\LL	32dd-\LLL	.
.	32b-\	.
16F'\ 16B-'\	32dd-\	.
.	32b-\JJJ	.
16F'\ 16c'\	32ee-\LLL	.
.	32a\	.
16F'\ 16c'\JJ	32ee-\	.
.	32a\JJJ	.
=98	=98	=98
16BB-'\ 16B-'\LL	16b-\LL	<
16AA'\ 16A'\	32f\ 32ff\L	.
.	32ee-\JJJ	.
16BB-'\ 16B-'\	32f\ 32ff\LLL	.
.	32dd-\	.
16C'\ 16c'\JJ	32f\ 32ff\	.
.	32cc\JJJ	.
16D-'\ 16d-'\LL	32f\ 32ff\LLL	.
.	32b-\	.
16E-'\ 16e-'\	32f\ 32ff\	.
.	32a\JJJ	.
16D-'\ 16d-'\	32f\ 32ff\LLL	.
.	32b-\	.
16C'\ 16c'\JJ	32f\ 32ff\	.
.	32cc\JJJ	.
=99	=99	=99
16BB-'\ 16B-'\LL	32f\ 32ff\LLL	.
.	32dd-\	.
16Dn'\ 16dn'\	32b-\ 32bb-\	.
.	32aa-\JJJ	.
16E-'\ 16e-'\	32b-\ 32bb-\LLL	.
.	32gg-\	.
16F'\ 16f'\JJ	32b-\ 32bb-\	.
.	32ff\JJJ	.
16G-\ 16g-\LL	32b-/ 32bb-/LLL	.
.	32ee-/	.
16A-\ 16a-\	32b-/ 32bb-/	.
.	32ddn/JJJ	.
16G-\ 16g-\	32b-/ 32bb-/LLL	.
.	32ee-/	.
16F\ 16f\JJ	32b-/ 32bb-/	.
.	32ff/JJJ	.
=100	=100	=100
16E-\ 16e-\	32b-\ 32bb-\LLL	.
.	32gg-\	.
*clefG2	*	*
16e-/ 16g-/LL	32b-\ 32bb-\	.
.	32gg-\JJJ	.
16en/ 16gn/	32cc\ 32ccc\LLL	.
.	32bb-\	.
16e/ 16g/JJ	32cc\ 32ccc\	.
.	32bb-\JJJ	.
16f/ 16b-/LL	32dd-\ 32ddd-\LLL	.
.	32bb-\	.
16f/ 16b-/	32dd-\ 32ddd-\	.
.	32bb-\JJJ	.
16f/ 16cc/	32ee-\ 32eee-\LLL	.
.	32aa\	.
16f/ 16cc/JJ	32ee-\ 32eee-\	.
.	32aa\JJJ	.
=101	=101	=101
16B-/ 16d-/ 16f/ 16b-/LL	16bb-'\LK	.
16B-/ 16d-/ 16f/ 16b-/	8fff\	.
16B-/ 16d-/ 16f/ 16b-/	.	.
16B-/ 16d-/ 16f/ 16b-/JJ	16fff\Jk	.
16B-/ 16c/ 16e-/ 16f/ 16a/LL	(32eee-\LLL	.
.	32ccc\	.
16B-/ 16c/ 16e-/ 16f/ 16a/	32aa\	.
.	32ff\JJJ	.
16B-/ 16c/ 16e-/ 16f/ 16a/	32ee-\LLL	.
.	32ddn\	.
16B-/ 16c/ 16e-/ 16f/ 16a/JJ	32ee-\	.
.	32cc\JJJ)	.
*clefF4	*	*
=102	=102	=102
16BB-\ 16D-\ 16F\ 16B-\LL	16b-'\LK	f
16BB-\ 16D-\ 16F\ 16B-\	8ff\	.
16BB-\ 16D-\ 16F\ 16B-\	.	.
16BB-\ 16D-\ 16F\ 16B-\JJ	16ff\Jk	.
16BB-\ 16C\ 16E-\ 16F\ 16A\LL	(32ee-\LLL	.
.	32cc\	.
16BB-\ 16C\ 16E-\ 16F\ 16A\	32a\	.
.	32f\JJJ	.
16BB-\ 16C\ 16E-\ 16F\ 16A\	32e-/LLL	.
.	32dn/	.
16BB-\ 16C\ 16E-\ 16F\ 16A\JJ	32e-/	.
.	32c/JJJ)	.
=103	=103	=103
[4BB-/	8B-/	.
.	8r	.
(16BB-/LL]	4r	.
16D-/	.	.
16E-/	.	.
16D-/JJ	.	.
=104	=104	=104
16C-/LL	2r	.
16BB-/	.	.
16AA-/	.	.
16GG-/JJ	.	.
8FF/L	.	.
8GG-/J	.	.
=105	=105	=105
*	*^	*
8GGn/L	4e-/	8B-\ 8d-\L	p
[8AA-/J)	.	8A-\ 8c-\J	.
(16AA-/LL]	4r	4r	.
16E-/	.	.	.
16F-/	.	.	.
16E-/JJ	.	.	.
*	*v	*v	*
=106	=106	=106
16D-/LL	2r	.
16C-/	.	.
16BB-/	.	.
16AA-/JJ	.	.
8GG/L	.	.
8AA-/J)	.	.
=107	=107	=107
*	*^	*
(2AAn/	8g-/L	2cn\ 2e-\	pp
.	8.f/J	.	.
.	(16f/LL	.	.
.	16g-/	.	.
.	16f/JJ)	.	.
=108	=108	=108	=108
2BB-/	8g-/L	2e-\	.
.	8.f/J	.	.
.	16f/LL	.	.
.	16g-/	.	.
.	16f/JJ	.	.
=109	=109	=109	=109
8AA/)	8.g-/L	8c\ 8e-\	.
8r	.	8r	.
.	16f/Jk	.	.
4r	8.g-/L	4r	.
.	16f/Jk	.	.
*	*v	*v	*
=110	=110	=110
2r	32g-/LLL	.
.	32f/	.
.	32g-/	.
.	32f/	.
.	32g-/	.
.	32f/	.
.	32g-/	.
.	32f/JJJ	.
.	32g-/LLL	.
.	32f/	.
.	32g-/	.
.	32f/	.
.	32g-/	.
.	32f/	.
.	32g-/	.
.	32f/JJJ	.
=111	=111	=111
2r	32gn/LLL	<
.	32f/	.
.	32g/	.
.	32f/	.
.	32g/	.
.	32f/	.
.	32g/	.
.	32f/JJJ	.
.	32g/LLL	.
.	32f/	.
.	32g/	.
.	32f/	.
.	32g/	.
.	32f/	.
.	32g/	.
.	32f/JJJ	.
=112	=112	=112
16G\ (16e-\LL	16r	p
16F\ 16d\	(16f/LL	.
16E-\ 16c\	16ff/	.
16D\ 16B-\JJ	16f/JJ)	.
8C\ 8A\L	16r	.
.	(16f/LL	.
8D\ 8B-\J)	16ff/	.
.	16f/JJ)	.
=113	=113	=113
8G#\ (8Bn\L	16r	.
.	(16f/LL	.
8.A\ 8.c\J)	16ff/	.
.	16f/JJ)	.
.	16ff\	.
(16f#\LL	16r	.
16a\	8r	.
16gn\JJ)	.	.
=114	=114	=114
(16fn\LL	16r	.
16G\ 16e-\	(16f/LL	.
16F\ 16d\	16ff/	.
16E-\ 16c\JJ	16f/JJ)	.
8D\ 8B-\L	16r	.
.	(16f/LL	.
8A\ 8c\J)	16ff/	.
.	16f/JJ)	.
=115	=115	=115
*^	*	*
8A\ (8c#\L	4.r	16r	.
.	.	(16f/LL	.
8.B-\ 8.d\J)	.	16ff/	.
.	.	16f/JJ)	.
.	.	8ff\	.
*clefG2	*clefG2	*	*
(16f/LL	.	.	.
16g/	8Bn\	8r	.
16d/JJ	.	.	.
=116	=116	=116	=116
16f/LL	8c\L	16r	.
16e-/	.	16ff\LK	.
16f/	8A\J	8fff\J	.
16c/JJ	.	.	.
16e-/LL	8B-\L	16r	.
16d/	.	16f\LK	.
16g/	8Bn\J	8ff\J	.
16d/JJ	.	.	.
=117	=117	=117	=117
16f/LL	8c\L	16r	.
16e-/	.	16ff\LK	.
16f/	8A\J	8fff\J	.
16c/JJ	.	.	.
16e-/LK	8B-\L	16r	.
8d/	.	8ff\L	<
.	8A\J	.	.
(16c/Jk)	.	32gg\LL	.
.	.	32aa\JJJ	.
*clefF4	*clefF4	*	*
=118	=118	=118	=118
8c/)	4G\	32bb-\LLL	f
.	.	32ccc\	.
.	.	32ddd\	.
.	.	32ccc\	.
4B-/	.	32bb-\	.
.	.	32aa\	.
.	.	32gg\	.
.	.	32ff\JJJ	.
.	4C\	32een\LLL	.
.	.	32dd\	.
.	.	32cc\	.
.	.	32b-\	.
[8B-/	.	32a\	.
.	.	32g\	.
.	.	32f\	.
.	.	32en\JJJ	.
=119	=119	=119	=119
(8B-/L]	4F\	(32g/LLL	p
.	.	32f/	.
.	.	32a/	.
.	.	32g/	.
8A/J)	.	32b-/	.
.	.	32a/	.
.	.	32cc/	.
.	.	32b-/JJJ	.
4r	4r	32dd\LLL	.
.	.	32cc\	.
.	.	32ee-\	.
.	.	32dd\	.
.	.	32ff\	.
.	.	32een\	.
.	.	32gg\	.
.	.	32ff\JJJ)	.
=120	=120	=120	=120
16BB-/LL	8BB-\L	(16e-/ 16ee-/LL	p
16F/	.	16d/ 16dd/	.
16D/	8D\	16c/ 16cc/	.
16F/JJ	.	16B-/ 16b-/JJ	.
16E-/LL	8C\	8A/ 8a/L	.
16F/	.	.	.
16D/	8BB-\J	8B-/ 8b-/J	.
16F/JJ	.	.	.
=121	=121	=121	=121
16E-/LL	2AA\ 2E-\	8Bn/ 8bn/L	.
16F/	.	.	.
16F/	.	8.c/) 8.cc/J	.
16F/JJ	.	.	.
16F/LL	.	.	.
16F/	.	(32f#\LLL	.
.	.	(32ff#\JJJ)	.
16F/	.	32a\LLL	.
.	.	32aa\)	.
16F/JJ	.	(32g\	.
.	.	32gg\JJJ)	.
=122	=122	=122	=122
16AA/LL	(8AA\L	32fn/LLL	.
.	.	32ffn/	.
16F/	.	32e-/	.
.	.	32ee-/JJJ	.
16E-/	8E-\	32d/LLL	.
.	.	32dd/	.
16F/JJ	.	(32c/	.
.	.	32cc/JJJ)	.
16D/LL	8D\	(32A/LLL	<
.	.	32a/)	.
16F/	.	(32B-/	.
.	.	32b-/JJJ)	.
16AA/)	8AA\J	32Bn/LLL	.
.	.	32bn/	.
16F/JJ	.	(32c/	.
.	.	32cc/JJJ)	.
=123	=123	=123	=123
16BB-/LL	(4.BB-\	(8c#/ 8cc#/L	>
16F/	.	.	.
16F/	.	8.d/) 8.dd/J	.
16F/JJ	.	.	.
16F/LL	.	.	.
16F/	.	32f/LLL	<
.	.	32ff/JJJ	.
16F/	(8BBn\)	32g/LLL	.
.	.	32gg/	.
16F/JJ	.	32d/	.
.	.	32dd/JJJ	.
=124	=124	=124	=124
16C/LL	8C\L	32f/LLL	.
.	.	32ff/	.
16F/	.	32e-/	.
.	.	32ee-/JJJ	.
16AA/	8AA\	32f/LLL	.
.	.	32ff/	.
16F/JJ	.	32cn/	.
.	.	32ccn/JJJ	.
16BB-/LL	8BB-\	32e-/LLL	.
.	.	32ee-/	.
16F/	.	32d/	.
.	.	32dd/JJJ	.
16BBn/	8BBn\J	32g/LLL	.
.	.	32gg/	.
16F/JJ	.	32d/	.
.	.	32dd/JJJ	.
=125	=125	=125	=125
16C/LL	8C\L	32f/LLL	.
.	.	32ff/	.
16F/	.	32e-/	.
.	.	32ee-/JJJ	.
16AA/	8AA\	32f/LLL	.
.	.	32ff/	.
16F/JJ	.	32c/	.
.	.	32cc/JJJ	.
16BB-/LL	8BB-\	32e-/LLL	.
.	.	32ee-/	.
16F/	.	32d/	.
.	.	32dd/JJJ	.
16AA-/	8AA-\J	32e-/LLL	.
.	.	32ee-/	.
16BB-/JJ	.	32f/	.
.	.	32ff/JJJ	.
=126	=126	=126	=126
16GG/LL	8GG\L	32f#\LLL	f
.	.	32ff#\	.
16BB-/	.	32g\	.
.	.	32gg\JJJ	.
16EE-/	8EE-\J	32a\LLL	.
.	.	32aa\	.
16E-/JJ	.	32b-\	.
.	.	32bb-\JJJ	.
16FF/LL	8FF\L	8B-/ 8b-/L	.
16D/	.	.	.
16FF/)	8FF\J	8c/ 8cc/J	.
16AA/JJ	.	.	.
=127	=127	=127	=127
16BBB-/	16r	(8c#/ 8cc#/L	p
16BB-/LL	8.BB-\	.	.
16B-/	.	[8d/) [8dd/J	.
16B-/JJ	.	.	.
16B-/LL	8BB-\L	32d/] (32dd/LLL]	.
.	.	32b-/	<
16B-/	.	32a/	.
.	.	32b-/	.
16A-/	8A-\J	32bn/	.
.	.	32ccn/	.
16B-/JJ	.	32cc#/	.
.	.	32dd/JJJ	.
=128	=128	=128	=128
*	*	*^	*
16G/LL	8G\L	32ee-\LLL	4.r	.
.	.	32een\	.	.
16B-/	.	32ff\	.	.
.	.	32ff#\	.	.
16E-/	8E-\J	32gg\	.	.
.	.	32aa-\	.	.
16e-/JJ	.	32aan\	.	.
.	.	32bb-\JJJ)	.	.
16F/LL	8F\L	(8b-/L	.	p
16d/	.	.	.	.
*	*	*v	*v	*
.	.	aq/LL	.
.	.	b-q/JJ	.
*	*	*^	*
16F/	8F\J	16.dd/L	8e-\	.
16A/JJ	.	.	.	.
.	.	32cc/JJk)	.	.
*v	*v	*	*	*
*	*v	*v	*
=129	=129	=129
8BB-\ 8B-\	8d/ 8b-/	.
8r	8r	.
4B-\ 4d\	4f/ 4dd/	.
=130	=130	=130
*	*^	*
4.E-\ 4.c\	8.cc/L	4.g\	.
.	(bnq/LL	.	.
.	ccq/JJ	.	.
.	32dd/LL)	.	.
.	32ee-/JJJ	.	.
.	8g/L	.	.
8F\ 8c\	8a/J	8e-\	.
=131	=131	=131	=131
4BB-\ 4B-\	(8b-/L	4d\	.
.	16f/Jk)	.	.
.	16r	.	.
4B-\ (4d\	4dd/	4f\	.
=132	=132	=132	=132
4En\ 4G\	8cc/L	4g\	p
.	16.cc/L	.	.
.	32dd/JJk	.	.
4C\ 4c\	8b-/L	4en\	.
.	16.b-/L	.	.
.	32cc/JJk	.	.
=133	=133	=133	=133
4F\ 4c\)	8b-/L	4f\	p
.	16a/Jk	.	.
.	16r	.	.
4B-\ (4d\	4gg/	4g\	.
=134	=134	=134	=134
4A\ 4c\	8ff/L	4cc\	p
.	16.ff/L	.	.
.	32gg/JJk	.	.
4F\ 4f\	8ee-/L	4a\	.
.	16.ee-/L	.	.
.	32ff/JJk	.	.
=135	=135	=135	=135
4B-\ 4f\)	8ee-/L	4b-\	.
.	16dd/Jk	.	p
.	16r	.	.
(32D/LLL	8r	4r	.
32B-/J	.	.	.
[16d/JJ)	.	.	.
8D/ 8B-/ 8d/]	32dd/LLL	.	<
.	32bb-/J	.	.
.	[16ddd/JJ	.	.
*	*v	*v	*
=136	=136	=136
32E-/LLL	8dd\ 8bb-\ 8ddd\]	.
32B-/J	.	.
[16d/JJ	.	.
8E-\ 8B-\ 8d\]	32dd/LLL	.
.	32bb-/J	.
.	[16ddd/JJ	.
32F/LLL	8dd/ 8bb-/ 8ddd/]	.
32B-/J	.	.
[16d/JJ	.	.
8F/ 8B-/ 8d/]	32dd/LLL	.
.	32bb-/J	.
.	(16ddd/JJ	.
=137	=137	=137
32G/LLL	8dd/ 8bb-/) 8ddd/	.
32B-/J	.	.
[16d/JJ	.	.
8G\ 8B-\ 8d\]	32dd/LLL	.
.	[32bb-/J	.
.	16dd/ 16bb-/] 16ddd/JJ	.
*clefG2	*	*
(8d/ 8f/ 8b-/L	8r	.
8en/ 8g/ [8b-/J	[8dd\ [8ddd\	f
=138	=138	=138
8f/) 8b-/L]	8dd\] 8ddd\L]	>
16a/Jk	16cc\ 16ccc\Jk	.
16r	16r	.
(8B-/ 8d/ 8g/L	8r	.
8c#/) [8en/ 8g/J	[8b-\ [8bb-\	.
=139	=139	=139
*^	*	*
8e/L]	[8d\L	8b-\] 8bb-\L]	>
16f/Jk	16d\Jk]	16a\ 16aa\Jk	.
16r	16r	16r	.
*v	*v	*	*
*clefF4	*	*
*^	*	*
(8G\ 8B-\ 8e-\L	4r	8r	.
8A\) 8c\ [8e-\J	.	[8g\ [8gg\	.
=140	=140	=140	=140
16e-/LK]	(8B-\L	(16g/] 16gg/LK]	.
8d/	.	8f/ 8ff/	.
.	8E-\	.	.
8c/	.	8e-/ 8ee-/	.
.	8F\	.	.
8B-/	.	8d/ 8dd/	.
.	8F\J)	.	.
[16A/Jk	.	16c/) 16cc/Jk	.
=141	=141	=141	=141
*	*	*^	*
(8A/L]	8.BB-\	(8c#/ 8cc#/L	4r	.
16B-/Jk)	.	16d/) 16dd/Jk	.	.
16r	16r	16r	.	.
(8F/L	4BB-\	8r	(8d\L	.
[8G/J)	.	[8dd/	[8en\J)	.
=142	=142	=142	=142	=142
(8G/L]	4AA\	(8dd/L]	8e\L]	.
16A/Jk)	.	16ccn/Jk)	16f\Jk	.
16r	.	16r	16r	.
(8D/L	4GG\	8r	(8B-\L	.
[8En/J)	.	[8b-/	[8c#\J)	.
=143	=143	=143	=143	=143
(8E/L]	4FF\	(8b-/L]	8c#\L]	.
16F/Jk)	.	16a/Jk)	16d\Jk	.
16r	.	16r	16r	.
(8BB-/L	4EE-\	(8g/L	8G\L	<
8C/J)	.	[8g-/J)	8A\J	.
*v	*v	*	*	*
=144	=144	=144	=144
(8DD\ 8D\L	(16g-/LK]	8B-\L	.
.	8f/	.	.
8EE-\	.	8c\	.
.	8e-/	.	.
8FF\	.	8F\ 8B-\	.
.	8d/	.	.
8FFF\J)	.	8E-\ 8A\J	.
.	16c/Jk)	.	.
*	*v	*v	*
=145	=145	=145
*^	*	*
(8BBB-/	8r	32B-/LLL	.
.	.	32D/	.
.	.	32F/	.
.	.	32B-/JJJ	.
8BB-/L)	4.BB-\	32d/LLL	.
.	.	32f/	.
.	.	32b-/	.
.	.	32dd/JJJ	.
[8D/	.	32f\LLL	.
.	.	32b-\	.
.	.	32dd\	.
.	.	32ff\JJJ	.
8D/] 8F/J	.	32b-\LLL	.
.	.	32dd\	.
.	.	32ff\	.
.	.	32bb-\JJJ	.
=146	=146	=146	=146
8C/L	2BB-\ 2C\	32aa\LLL	.
.	.	32eee-\	.
.	.	32ccc\	.
.	.	32aa\JJJ	.
[8E-/	.	32ff\LLL	.
.	.	32ccc\	.
.	.	32aa\	.
.	.	32ff\JJJ	.
8E-/_ [8F/	.	32ee-\LLL	.
.	.	32aa\	.
.	.	32ff\	.
.	.	32ee-\JJJ	.
8E-/] 8F/] 8A/J	.	32cc\LLL	.
.	.	32ff\	.
.	.	32ee-\	.
.	.	32cc\JJJ	.
=147	=147	=147	=147
(8BBB-/	8r	32b-/LLL	.
.	.	32D/	.
.	.	32F/	.
.	.	32B-/JJJ	.
8BB-/L)	4.BB-\	32d/LLL	.
.	.	32f/	.
.	.	32b-/	.
.	.	32dd/JJJ	.
[8D/	.	32f\LLL	.
.	.	32b-\	.
.	.	32dd\	.
.	.	32ff\JJJ	.
8D/] 8F/J	.	32b-\LLL	.
.	.	32dd\	.
.	.	32ff\	.
.	.	32bb-\JJJ	.
=148	=148	=148	=148
8C/L	2BB-\ 2C\	32aa\LLL	.
.	.	32eee-\	.
.	.	32ccc\	.
.	.	32aa\JJJ	.
[8E-/	.	32ff\LLL	.
.	.	32ccc\	.
.	.	32aa\	.
.	.	32ff\JJJ	.
8E-/_ [8F/	.	32ee-\LLL	.
.	.	32aa\	.
.	.	32ff\	.
.	.	32ee-\JJJ	.
8E-/] 8F/] 8A/J	.	32cc\LLL	.
.	.	32ff\	.
.	.	32ee-\	.
.	.	32cc\JJJ	.
=149	=149	=149	=149
(8BBB-/	8r	32b-/LLL	.
.	.	32D/	.
.	.	32F/	.
.	.	32B-/JJJ	.
8BB-/L)	4.BB-\	32d/LLL	<
.	.	32f/	.
.	.	32b-/	.
.	.	32dd/JJJ	.
[8D/	.	32f\LLL	.
.	.	32b-\	.
.	.	32dd\	.
.	.	32ff\JJJ	.
8D/] 8F/J	.	32b-\LLL	.
.	.	32dd\	.
.	.	32ff\	.
.	.	32bb-\JJJ	.
=150	=150	=150	=150
(8AAA-/	8r	32r	.
.	.	32D/LLL	.
.	.	32F/	.
.	.	32B-/JJJ	.
8AA-/L	4.AA-\)	32d/LLL	.
.	.	32f/	.
.	.	32b-/	.
.	.	32dd/JJJ	.
[8D/	.	32f\LLL	.
.	.	32b-\	.
.	.	32dd\	.
.	.	32ff\JJJ	.
8D/] 8F/J	.	32b-\LLL	.
.	.	32dd\	.
.	.	32ff\	.
.	.	32bb-\JJJ	.
=151	=151	=151	=151
(8GGG/	8r	32r	.
.	.	32E-/LLL	.
.	.	32G/	.
.	.	32B-/JJJ	.
8GG/L)	4.GG\	32e-/LLL	.
.	.	32g/	.
.	.	32b-/	.
.	.	32ee-/JJJ	.
[8BB-/	.	32g\LLL	.
.	.	32b-\	.
.	.	32ee-\	.
.	.	32gg\JJJ	.
8BB-/] 8E-/J	.	32b-\LLL	.
.	.	32ee-\	.
.	.	32gg\	.
.	.	32bb-\JJJ	.
*v	*v	*	*
=152	=152	=152
32DD/LLL	4r	.
32FF/	.	.
32AA-/	.	.
32BB-/JJJ	.	.
32D/LLL	.	.
32F/	.	.
32A-/	.	.
32B-/JJJ	.	.
4r	32d/LLL	.
.	32f/	.
.	32a-/	.
.	32b-/JJJ	.
.	(40dd\LLL	.
.	40ff\	.
.	40aa-\	.
.	40ccc\	.
.	40bb-\JJJ	.
*clefG2	*	*
=153	=153	=153
*^	*	*
16e-/LL	8e-\L	16aa-\LL	p
16b-/	.	16gg\	.
16g/	8g\	16ff\	.
16b-/JJ	.	16ee-\JJ	.
16a-/LL	8f\	8dd\L	.
16b-/	.	.	.
16g/	8e-\J	8ee-\J	.
16b-/JJ	.	.	.
=154	=154	=154	=154
16a-/LL	2d\ 2a-\	8een\L	.
16b-/	.	.	.
16b-/	.	8.ff\J)	.
16b-/JJ	.	.	.
16b-/LL	.	.	.
16b-/	.	(16bbn\LL	.
.	.	aaq/LL	.
.	.	bbq/JJ	.
16b-/	.	16ddd\	.
16b-/JJ	.	16ccc\JJ	.
=155	=155	=155	=155
16d/LL	8d\L	16bb-\LL	.
16b-/	.	16aa-\	.
16a-/	8a-\	16gg\	.
16b-/JJ	.	16ff\JJ	.
16g/LL	8g\	16dd\LL	.
16b-/	.	16ee-\	.
16d/	8d\J	16een\	.
16b-/JJ	.	16ff\JJ)	.
=156	=156	=156	=156
16e-/LL	8e-\L	(8ff#\L	.
16b-/	.	.	.
16e-/	8e-\	8.gg\J)	.
16bn/JJ	.	.	.
16e-/LL	8e-\J	.	.
16cc/JJ	.	(16gg\LL	.
8r	8r	16aa-\	.
.	.	16gg\JJ	.
=157	=157	=157	=157
16r	8r	16ffn\LL	.
16g/LL	.	16ee-\	.
16e-/	8e-\L	16dd\	.
16g/JJ	.	16cc\JJ	.
16f/LL	8d\	8bn\L	.
16g/	.	.	.
16e-/	8c\J	8cc\J	.
16g/JJ	.	.	.
=158	=158	=158	=158
16f/LL	[4Bn\ [4f\	8cc#\L	.
16g/	.	.	.
16g/	.	8dd\J)	.
16g/JJ	.	.	.
16g/	16B\] 16f\]	16r	.
16r	16r	(16gg\LL	pp
8r	8r	16aa-\	.
.	.	16gg\JJ	.
*v	*v	*	*
=159	=159	=159
4r	16ff\LL	.
.	16ee-\	.
.	16dd\	.
.	16cc\JJ)	.
16r	16r	.
16g/LL	(16ee-\LL	<
16a-/	16ff\	.
16g/JJ	16ee-\JJ	.
=160	=160	=160
16f/LL	16dd\LL	>
16e-/	16cc\	.
16d/	16b-\	.
16c/JJ	16an\JJ)	.
*clefF4	*	*
16r	4r	.
(16e-\LL	.	.
16f\	.	.
16e-\JJ	.	.
=161	=161	=161
16d\LL	2r	.
16c\	.	.
16B-\	.	.
16A\JJ	.	.
16G\LL	.	.
16F\	.	.
16E-\	.	.
16D\JJ)	.	.
=162	=162	=162
16C/LL	32r	.
.	(32A/LLL	p
16BB-/	32B-/	.
.	32c/	.
16AA/	32d/	.
.	32e-/	.
16GG/JJ	32f/	.
.	32g/JJJ	.
[4FF/	24a\LL	.
.	24b-\	.
.	24bn\JJ	.
.	24cc\LL	.
.	24cc#\	.
.	24dd\JJ	.
=163	=163	=163
2FF/_	24ee-\LL)	<
.	(24a\	.
.	24b-\JJ	.
.	24bn\LL	.
.	24ccn\	.
.	24dd\JJ	.
.	24ee-\LL)	.
.	(24a\	.
.	24b-\JJ	.
.	24bn\LL	.
.	24cc\	.
.	24dd\JJ	.
=164	=164	=164
2FF/]	32ee-\LLL)	.
.	(32a\	.
.	32g#\	.
.	32a\	.
.	32b-\	.
.	32bn\	.
.	32cc\	.
.	32cc#\JJJ	.
.	24dd\LL	.
.	24ee-\	.
.	24een\JJ	.
.	16gg\LL	>
.	16ff\JJ)	.
=165	=165	=165
*^	*	*
16BB-/	8r	(24ff\LL	p
.	.	24ee-\	.
*clefG2	*clefG2	*	*
16f/LL	.	.	.
.	.	24dd\JJ)	.
16d/	8d\L	(24dd\LL	.
.	.	24cc\	.
16f/JJ	.	.	.
.	.	24b-\JJ	.
16e-/LL	8c\	(24b-/LL)	.
.	.	24g#/	.
16f/	.	.	.
.	.	24a/JJ	.
16d/	8B-\J	24cc/LL	.
.	.	24a/	.
16f/JJ	.	.	.
.	.	24b-/JJ)	.
=166	=166	=166	=166
16e-/LL	2A\ 2e-\	(8bn\L	.
16f/	.	.	.
16f/	.	[8cc\J)	.
16f/JJ	.	.	.
16f/LL	.	(16cc\LL]	.
16f/	.	16ff#\	.
16f/	.	16aa\	.
16f/JJ	.	16gg\JJ)	.
=167	=167	=167	=167
16A/LL	8A\L	(24gg\LL	.
.	.	24ffn\	.
16f/	.	.	.
.	.	24ee-\JJ)	.
16e-/	8e-\	(24ee-\LL	.
.	.	24dd\	.
16f/JJ	.	.	.
.	.	24cc\JJ)	.
16d/LL	8d\	24cc\LL	.
.	.	(24a\	.
16f/	.	.	.
.	.	24b-\JJ	.
16A/	8A\J	24dd\LL	.
.	.	24bn\	.
16f/JJ	.	.	.
.	.	24cc\JJ)	.
=168	=168	=168	=168
16B-/LL	4.B-\	(8cc#\L	.
16f/	.	.	.
16f/	.	[8dd\J)	.
16f/JJ	.	.	.
16f/LL	.	24dd\LL]	<
.	.	24ff\	.
[16f/	.	.	.
.	.	24een\JJ	.
16f/]	8Bn\	24ff\LL	.
.	.	24gg\	.
16f/JJ	.	.	.
.	.	24dd\JJ	.
=169	=169	=169	=169
16c/LL	8c\L	24ff\LL	.
.	.	24ee-\	.
16f/	.	.	.
.	.	24dd\JJ	.
16A/	8A\	24ee-\LL	.
.	.	24ff\	.
16f/JJ	.	.	.
.	.	24cc\JJ	.
16B-/LL	8B-\	24ee-\LL	.
.	.	24dd\	.
16f/	.	.	.
.	.	24cc#\JJ	.
16Bn/	8Bn\J	24dd\LL	.
.	.	24gg\	.
16f/JJ	.	.	.
.	.	24dd\JJ	.
=170	=170	=170	=170
16c/LL	8c\L	24ff\LL	.
.	.	24ee-\	.
16f/	.	.	.
.	.	24dd\JJ	.
16A/	8A\	24ee-\LL	.
.	.	24ff\	.
16f/JJ	.	.	.
.	.	24cc\JJ	.
16B-/LL	8B-\	32ee-\LLL	p
.	.	32dd\	.
16d/	.	32cc#\	.
.	.	32dd\JJJ	.
16A/	8A\J	32ee-\LLL	<
.	.	32een\	.
16c/JJ	.	32ff\	.
.	.	32ff#\JJJ	.
*v	*v	*	*
*clefF4	*	*
=171	=171	=171
*^	*	*
16G/LL	8G\L	32gg\LLL	.
.	.	32aa-\	.
16B-/	.	32aan\	.
.	.	32bb-\JJJ	.
16G/	8G\J	32bbn\LLL	.
.	.	32ccc\	.
16B-/JJ	.	32ccc#\	.
.	.	32ddd\JJJ	.
16C/LL	8C\L	32eeen\LLL	f
.	.	32ddd\	.
16B-/	.	32cccn\	.
.	.	32bb-\JJJ	.
16C/	8C\J	32aa\LLL	.
.	.	32gg\	.
[16B-/JJ	.	32ffn\	.
.	.	32een\JJJ	.
=172	=172	=172	=172
16B-/LL]	(4F\	(8gg\L	p
16B-/	.	.	.
16A/	.	8ff\J)	.
16G/JJ)	.	.	.
8A/	8F\	16r	.
.	.	16f\ (16ff\LL	.
8r	8r	16g\ 16gg\	.
.	.	16f\ 16ff\JJ)	.
=173	=173	=173	=173
16BB-/LL	(8BB-\L	24r	.
.	.	24e-'/ 24ee-'/LL	.
16F/	.	.	.
.	.	24d'/ 24dd'/JJ	.
16D/	8D\	24r	.
.	.	24c'/ 24cc'/LL	.
16F/JJ	.	.	.
.	.	24B-'/ 24b-'/JJ	.
16E-/LL	8C\	24r	.
.	.	24G#'/ 24g#'/LL	.
16F/	.	.	.
.	.	24A'/ 24a'/JJ	.
16D/	8BB-\J)	24r	.
.	.	24A'/ 24a'/LL	.
16F/JJ	.	.	.
.	.	24B-'/ 24b-'/JJ	.
=174	=174	=174	=174
16E-/LL	2AA\ 2E-\	(8Bn/ 8bn/L	.
16F/	.	.	.
16F/	.	8.c/) 8.cc/J	.
16F/JJ	.	.	.
16F/LL	.	.	.
16F/	.	16f#\ (16ff#\LL	.
16F/	.	16a\ 16aa\	.
16F/JJ	.	16g\ 16gg\JJ)	.
=175	=175	=175	=175
16AA/LL	(8AA\L	24r	.
.	.	24fn'/ 24ffn'/LL	.
16F/	.	.	.
.	.	24e-'/ 24ee-'/JJ	.
16E-/	8E-\	24r	.
.	.	24d'/ 24dd'/LL	.
16F/JJ	.	.	.
.	.	24c'/ 24cc'/JJ	.
16D/LL	8D\	24r	.
.	.	24A'/ 24a'/LL	.
16F/	.	.	.
.	.	24B-'/ 24b-'/JJ	.
16AA/)	8AA\J	24r	.
.	.	24Bn'/ 24bn'/LL	.
16F/JJ	.	.	.
.	.	24c'/ 24cc'/JJ	.
=176	=176	=176	=176
*	*	*^	*
16BB-/LL	4.BB-\	8cc/L	(8c\	.
16F/	.	.	.	.
16F/	.	[8dd/J	[8d\)	.
16F/JJ	.	.	.	.
16F/LL	.	24dd/LL]	8d\]	.
.	.	24ff/	.	.
16F/	.	.	.	.
.	.	24een/JJ	.	.
16BBn/	8BBn\	24ff/LL	[8a-\	.
.	.	24gg/	.	.
16F/JJ	.	.	.	.
.	.	24dd/JJ	.	.
=177	=177	=177	=177	=177
(16C/LL	8C\L	24ff/LL	8a-\L]	.
.	.	24ee-/	.	.
16F/	.	.	.	.
.	.	24dd/JJ	.	.
16FF/	8FF\J	24ee-/LL	8an\J	.
.	.	24ff/	.	.
16F/JJ	.	.	.	.
.	.	24cc/JJ	.	.
16BB-/LL	8BB-\L	24ee-/LL	8b-\L	.
.	.	24dd/	.	.
16F/	.	.	.	.
.	.	24cc#/JJ	.	.
16BBn/)	8BBn\J	24dd/LL	[8a-\J	.
.	.	24gg/	.	.
16F/JJ	.	.	.	.
.	.	24dd/JJ	.	.
=178	=178	=178	=178	=178
(16C/LL	8C\L	24ff/LL	8a-\L]	.
.	.	24ee-/	.	.
16F/	.	.	.	.
.	.	24dd/JJ	.	.
16FF/	8FF\J	24ee-/LL	8an\J	.
.	.	24ff/	.	.
16F/JJ	.	.	.	.
.	.	24cc/JJ	.	.
16BB-/LL	8BB-\L	24ee-/LL	16b-\	.
.	.	24d/ 24dd/	.	.
16F/	.	.	8.r	.
.	.	24c#/ 24cc#/JJ	.	.
16AA-/)	8AA-\J	24d/ 24dd/LL	.	.
.	.	24e-'/ 24ee-'/	.	.
16BB-/JJ	.	.	.	.
.	.	24en'/ 24een'/JJ	.	.
*	*	*v	*v	*
=179	=179	=179	=179
16GG/LL	16GG\LL	24f'\ 24ff'\LL	f
.	.	24f#'\ 24ff#'\	.
16BB-/	16BB-\	.	.
.	.	24g'\ 24gg'\JJ	.
16EE-/	16EE-\JJ	24a-'\ 24aa-'\LL	.
.	.	24a-'\ 24aan'\	.
16E-/JJ	16r	.	.
.	.	24b-'\ 24bb-'\JJ	.
16FF/LL	8FF\L	(8B-/ 8b-/L	.
16D/	.	.	.
16FF/	8FF\J	8c/ 8cc/J	.
16AA/JJ	.	.	.
=180	=180	=180	=180
16BBB-/	16r	8c/ 8cc/L	p
16BB-/LL	8.BB-\	.	.
16B-/	.	[8d/) [8dd/J	.
16B-/JJ	.	.	.
16B-/LL	8BB-\L	32d/] (32dd/LLL]	<
.	.	32b-/	.
16B-/	.	32a/	.
.	.	32b-/	.
16A-/	8A-\J	32bn/	.
.	.	32ccn/	.
16B-/JJ	.	32cc#/	.
.	.	32dd/JJJ	.
=181	=181	=181	=181
*	*	*^	*
16G/LL	8G\L	32ee-\LLL	4.r	.
.	.	32een\	.	.
16B-/	.	32ff\	.	.
.	.	32ff#\	.	.
16E-/	8E-\J	32gg\	.	.
.	.	32aa-\	.	.
16e-/JJ	.	32aan\	.	.
.	.	32bb-\JJJ)	.	.
16F/LL	8F\L	(8b-/L	.	p
16d/	.	.	.	.
.	.	.	aq/LL	.
.	.	.	b-q/JJ	.
16F/	8F\J	16.dd/L	8e-\	.
16A/JJ	.	.	.	.
.	.	32cc/JJk)	.	.
=182	=182	=182	=182	=182
8B-/	8BB-\	(32b-/LLL	8d\	.
.	.	32f/	.	.
.	.	32g/	.	.
.	.	32a/	.	.
8r	8r	32b-/	8r	.
.	.	32cc/	.	.
.	.	32dd/	.	.
.	.	32ee-/JJJ)	.	.
*v	*v	*	*	*
*clefG2	*	*	*
*^	*	*	*
4d/ 4f/	4r	4ff/	4b-\	.
*v	*v	*	*	*
=183	=183	=183	=183
4c/ 4e-/ 4f/	4ff/	4a\	.
4B-/ 4d/ 4f/	4ff/	(8.b-\L	.
.	.	32cc\LL	.
.	.	32dd\JJJ)	.
*clefF4	*	*	*
=184	=184	=184	=184
4A\ 4c\ 4f\	4ff/	4ee-\	.
4A-\ 4B-\ 4f\	4bb-/	(8.dd\L	.
.	.	32ee-\LL	.
.	.	32ff\JJJ)	.
*	*v	*v	*
=185	=185	=185
8G\ 8B-\ 8e-\L	8gg'\ 8bb-'\L	p
8En'\ 8B-'\ 8c'\	8cc'\ 8gg'\ 8ccc'\	.
8F'\ 8B-'\ 8d'\	8dd'\ 8ff'\ 8ddd'\	.
8F'\ 8A'\ 8c'\J	8ee-'\ 8eee-'\J	.
=186	=186	=186
*^	*^	*
8B-/	8BB-\	(8ddd/L	4dd\	.
8r	8r	16bb-/Jk)	.	.
.	.	16r	.	.
4r	32d\LLL	4ff/	4b-\	.
.	32c#\	.	.	.
.	32d\	.	.	.
.	32c#\	.	.	.
.	32d\	.	.	.
.	32f\	.	.	.
.	32e-\	.	.	.
.	32d\JJJ	.	.	.
*v	*v	*	*	*
=187	=187	=187	=187
32c\LLL	4r	4a\ 4ff\	.
32Bn\	.	.	.
32c\	.	.	.
32B\	.	.	.
32c\	.	.	.
32e-\	.	.	.
32d\	.	.	.
32c\JJJ	.	.	.
32B-\LLL	[4ff/	(8.b-\L	.
32A\	.	.	.
32B-\	.	.	.
32A\	.	.	.
32B-\	.	.	.
32d\	.	.	.
32c\	.	32cc\LL	.
32B-\JJJ	.	32dd\JJJ)	.
=188	=188	=188	=188
32A\LLL	4ff/]	4ee-\	.
32G#\	.	.	.
32A\	.	.	.
32G#\	.	.	.
32A\	.	.	.
32c\	.	.	.
32B-\	.	.	.
32A\JJJ	.	.	.
32A-\LLL	[4bb-/	(8.dd\L	.
32G#\	.	.	.
32A-\	.	.	.
32G#\	.	.	.
32A-\	.	.	.
32c\	.	.	.
32B-\	.	32ee-\LL	.
32A-\JJJ	.	32ff\JJJ)	.
*	*v	*v	*
=189	=189	=189
32G\LLL	8ee-\ 8gg\ 8bb-\]	<
32B-\	.	.
32An\	.	.
32B-\	.	.
32En\	8cc'\ 8gg'\ 8ccc'\L	.
32B-\	.	.
32A\	.	.
32B-\JJJ	.	.
32F\LLL	8dd'\ 8ff'\ 8ddd'\	.
32B-\	.	.
32A\	.	.
32B-\	.	.
32F\	8ee-'\ 8eee-'\J	.
32A\	.	.
32G#\	.	.
32A\JJJ	.	.
=190	=190	=190
*	*^	*
32B-\LLL	(8ddd/L	4dd\	.
32c\	.	.	.
32d\	.	.	.
32e-\JJJ	.	.	.
*clefG2	*	*	*
32f/LLL	16bb-/Jk)	.	.
32g/	.	.	.
32a/	16r	.	.
32b-/JJJ	.	.	.
32a-/LLL	[4bb-/	(8.b-\ 8.dd\L	.
32g/	.	.	.
32f/	.	.	.
32e-/	.	.	.
32d/	.	.	.
32c/	.	.	.
32B-/	.	32cc\ 32ee-\LL	.
32A-/JJJ	.	32dd\) 32ff\JJJ	.
*clefF4	*	*	*
*	*v	*v	*
=191	=191	=191
32G\LLL	8ee-\ 8gg\ 8bb-\]	.
32B-\	.	.
32An\	.	.
32B-\JJJ	.	.
32En\LLL	8cc'\ 8gg'\ 8ccc'\L	<
32B-\	.	.
32A\	.	.
32B-\JJJ	.	.
32F\LLL	8dd'\ 8ff'\ 8ddd'\	.
32B-\	.	.
32A\	.	.
32B-\JJJ	.	.
32F\LLL	8ee-'\ 8eee-'\J	.
32A\	.	.
32G#\	.	.
32A\JJJ	.	.
=192	=192	=192
*	*^	*
32B-\LLL	8ddd/L	4dd\	.
32A\	.	.	.
32Gn\	.	.	.
32F\	.	.	.
32E-\	16bb-/Jk	.	.
32D\	.	.	.
32C\	16r	.	.
32BB-\JJJ	.	.	.
32AA-/LLL	[4bb-/	8.b-\ 8.dd\L	.
32GG/	.	.	.
32FF/	.	.	.
32EE-/	.	.	.
32DD/	.	.	.
32CC/	.	.	.
32BBB-/	.	32cc\ 32ee-\LL	.
32AAA-/JJJ	.	32dd\ 32ff\JJJ	.
*	*v	*v	*
=193	=193	=193
32GGG/LLL	8ee-\ 8gg\ 8bb-\]	.
32GG/	.	.
32FF#/	.	.
32GG/JJJ	.	.
32GGG-/LLL	8cc'\ 8een'\ 8bb-'\ 8ccc'\L	ff
32GG-/	.	.
32FFn/	.	.
32GG-/JJJ	.	.
32FFF/LLL	8dd'\ 8ff'\ 8bb-'\ 8ddd'\	.
32FF/	.	.
32EEn/	.	.
32FF/JJJ	.	.
32FFF/LLL	8a'\ 8ee-'\ 8aa'\J	.
32FF/	.	.
32EE/	.	.
32FF/JJJ	.	.
=194	=194	=194
*	*^	*
8BBB-/	16bb-/	8b-\ 8dd\	.
.	16ff/LL	.	p
16r	16gg/	8r	.
16f\	16ff/JJ	.	.
16g\LL	16ee-/LL	4r	.
16f\	16dd/	.	.
16e-\	16cc/	.	.
16d\JJ	16b-/JJ	.	.
=195	=195	=195	=195
*^	*	*	*
16c/LL	4F\	16a/LL	4.e-\	.
16B-/	.	16g/J	.	.
16A/	.	[8f/J	.	.
16G/JJ	.	.	.	.
16F/LL	4FF\	8f/L]	.	.
16E-/	.	.	.	.
16D/	.	16g/L	8e-\	.
16C/JJ	.	16a/JJ	.	.
*v	*v	*	*	*
=196	=196	=196	=196
8BB-/	16b-/LL	16d\	.
.	16f/	8.r	pp
16r	16g/	.	.
16F\	16f/JJ	.	.
16G\LL	16e-/LL	4r	.
16F\	16d/	.	.
16E-\	16c/	.	.
16D\JJ	16B-/JJ	.	.
*	*v	*v	*
*	*clefF4	*clefF4
=197	=197	=197
*^	*^	*
16C/LL	4FF\	16A/LL	4.E-\	.
16BB-/	.	16G/J	.	.
16AA/	.	[8F/J	.	.
16GG/JJ	.	.	.	.
16FF/LL	4FFF\	(8F/L]	.	.
16EE-/	.	.	.	.
16DD/	.	16G/L	8E-\	.
16CC/JJ	.	16A/JJ	.	.
*v	*v	*	*	*
*	*v	*v	*
=198	=198	=198
8BBB-'/	8D'\ 8B-'\)	.
*	*clefG2	*clefG2
8F'\ 8c'\L	8e-'/ 8a'/L	pp
8B-'\J	8d'/ 8b-'/J	.
8FF'\ 8F'\	8cc'\ 8ee-'\ 8aa'\	ff
=199	=199	=199
8BBB-'/ 8BB-'/	8b-'\ 8dd'\ 8bb-'\	.
8r	8r	.
==	==	==
*-	*-	*-
!!!ENC: Craig Stuart Sapp
!!!END: 2008/07/17/
